X:1
T:Au feu damour
T:Au feu damour
T:Robert de la Rue
T:Source : Xe Livre de Chansons nouvelles à 4 parties---Paris---P.Attaignant---1541. Editor : André Vierendeels (12/01/15).
C:Pierre de la Rue
%%score [ 1 [ 2 3 ] 4 ]
L:1/8
Q:1/4=95
M:2/2
K:F
V:1 treble nm="Superius" snm="S"
V:2 treble-8 nm="Tenor 1" snm="T 1"
V:3 treble-8 nm="Tenor 2" snm="T 2"
V:4 bass nm="Bassus" snm="B"
V:1
 F4 c2 c2 | A2 A2 d2 d2 | c3 B A2 G2 | AB cA B2 A2- | AG FE FD G2- | GF F4 E2 | F4 z2 F2 | %7
w: Au feu da-|mour ie fais ma|pe- * * ni-|ten- * * * * *|||ce pour|
 F2 F2 G4 | A2 A2 B2 B2 | c3 B AG d2- | dc c4 B2 | c2 c2 c2 c2 | A4 z2 F2 | F2 F2 E2 F2 | D4 C4 | %15
w: u- ne da-|me qui me na-|vre'à _ _ _ grant|_ _ _ _|tort, et tou- te-|fois del-|le ne veulx ven-|gean- ce,|
 z2 c2 c3 B | A8 | z4 z2 c2 | c3 B A2 c2 | B2 A2 G4 | A4 F4 | z2 c2 c3 B | A2 c2 B2 A2 | %23
w: iay- me trop|myeulx,|iay-|me trop myeulx en|en- du- rer|la mort,|iay- me trop|mieulx en en- du-|
 G2 F2 ED G2- | GF F4 E2 | F8 |] %26
w: rer la _ _ _|_ _ _ _|mort.|
V:2
 z4 c4 | f2 f2 d2 d2 | f2 f2 f2 e2 | f4 f4 | z2 F2 c2 c2 | d2 B2 c4 | A2 c2 c2 c2 | d4 e2 e2 | %8
w: Au|feu da- mour ie|fais ma pe- ni-|ten- ce,-|ie fais ma|pe- ni- ten-|ce pour u- ne|da- * me|
 f2 f2 g4- | g4 c2 d2 | e2 f2 g4 | z2 e2 e2 e2 | f3 e/d/ cB AG | F2 c2 c2 A2 | B2 B2 G4 | %15
w: qui me na-|* vre'à grant|_ _ tort,|et tou- te-|fois _ _ _ _ _ _|_ del- le ne|veulx ven- gean-|
 G4 c2 c2- | cB AB c2 c2 | F2 f2 f2 e2 | c2 c2 f2 a2 | g2 f3 e/d/ e2 | f4 z2 f2 | f2 e2 f4 | %22
w: ce, iay- me|_ _ _ _ _ trop|mieulx, iay- me trop|mieulx en en- du-|rer la _ _ _|mort, iay-|me trop mieulx|
 z2 c2 f2 _e2- | e2 c4 d2- | d2 cB c4 | A8 |] %26
w: en en- du-|* rer la|_ _ _ _|mort.|
V:3
 z8 | z8 | F4 c2 c2 | A2 A2 d2 d2 | c3 B AB cA | BA GF G4 | F4 z4 | z4 z2 c2 | c2 c2 d4 | %9
w: ||Au feu da-|mour ie fais ma|pe- ni- ten- * * *||ce|pour|u- ne da-|
 e2 c2 f2 f2 | e2 dc d4 | c4 z2 c2 | c2 c2 A2 c2 | B2 A2 G2 F2 | G2 F4 ED | E2 C2 z2 c2 | %16
w: me qui me na-|vre'à- * * grant|tort, et|tou- te- fois del-|le ne veulx ven|gean- * * *|* ce,- iay-|
 c3 B A2 c2 | B2 A2 G4 | A4 F4 | z2 c2 c3 B | A2 c2 B2 A2 | G4 A4 | F4 z2 c2 | B2 A2 GA Bc | %24
w: me trop mieulx en|en- du- rer|la mort,|iay- me trop|mieulx en en- du-|rer la|mort, en|en- du- rer _ la _|
 A2 GF G4 | F8 |] %26
w: _ _ _ _|mort.|
V:4
 z8 | z8 | z4 C,4 | F,2 F,2 D,2 D,2 | F,2 F,2 F,2 E,2 | D,4 C,4 |"^-natural" z2 F,2 F,3 E, | %7
w: ||Au|feu da- mour ie|fais ma pe- ni-|ten- ce|pour u- ne|
 D,4 C,2 C,2 | F,2 A,2 G,2 G,2 | C,2 C4 B,2 | C2 A,2 G,4 | C,8 | F,4 F,2 F,2 | D,2 F,2 C,2 D,2 | %14
w: da- me qui|me na- vre'à grant|tort, qui me|na- vre'à grant|tort,|et tou- te-|fois del- le ne|
 B,,2 B,,2 C,4- | C,4 F,,4 | z2 F,2 F,3 E, | D,2 F,2 C,2 C,2 | F,4 z4 | z4 z2 C,2 | %20
w: veulx ven- gean-|* ce,|iay- me trop|mieulx en en- du-|rer,|iay-|
 F,3 E, D,2 F,2 | C,2 C,2 F,2 F,2 | F,3 E, D,2 C,2 | _E,2 F,2 C,2 B,,2 | D,4 C,4 | F,8 |] %26
w: me trop mieulx en|en- du- rer la|mort, _ _ en|en- du- rer la|_ _|mort.|

